src/assets/flags-icon.svg

<svg width="26" height="26" viewBox="0 0 26 26" fill="none" xmlns="http://www.w3.org/2000/svg">
<path d="M6.20198 4.49664C6.16583 4.54377 6.12805 4.59049 6.09148 4.63761L2.92517 3.85193C2.91501 3.79343 2.90364 3.73411 2.89348 3.67561C2.8745 3.57011 2.81458 3.47638 2.72679 3.41486C2.63899 3.35334 2.53044 3.32902 2.42479 3.34719C2.31914 3.36536 2.22496 3.42455 2.16276 3.51187C2.10057 3.59919 2.07541 3.70754 2.09276 3.81333C2.37186 5.43468 2.6867 7.07471 3.02714 8.68833C3.04297 8.7629 3.07946 8.83151 3.13244 8.88631C3.18542 8.94112 3.25276 8.97992 3.32674 8.99827C3.40073 9.01661 3.47839 9.01378 3.55084 8.99008C3.62329 8.96637 3.68761 8.92277 3.73645 8.86424C4.7927 7.59796 5.83839 6.29552 6.84223 4.99349C6.90736 4.9081 6.93603 4.80041 6.92198 4.69394C6.90793 4.58748 6.85229 4.49091 6.76724 4.42535C6.68219 4.35979 6.57464 4.33057 6.46811 4.34408C6.36157 4.3576 6.26472 4.41274 6.19873 4.49746L6.20198 4.49664Z" fill="#F2C247"/>
<path d="M17.9807 6.25358C17.935 6.22614 17.8843 6.208 17.8315 6.20018C17.7787 6.19235 17.7249 6.19501 17.6731 6.20799C17.6214 6.22096 17.5727 6.24401 17.5298 6.27581C17.487 6.30761 17.4508 6.34754 17.4234 6.39333C17.3929 6.44411 17.3608 6.49489 17.3299 6.54608L14.099 6.13414C14.082 6.07726 14.0637 6.01998 14.047 5.96311C14.0153 5.86126 13.9448 5.77599 13.8507 5.7257C13.7566 5.67542 13.6465 5.66415 13.5442 5.69435C13.4419 5.72454 13.3555 5.79377 13.3038 5.88707C13.2521 5.98038 13.2392 6.09028 13.2678 6.19304C13.7314 7.76645 14.2347 9.35814 14.7628 10.9246C14.7873 10.9969 14.8315 11.0608 14.8906 11.1091C14.9496 11.1574 15.0211 11.1881 15.0968 11.1976C15.1138 11.1997 15.1309 11.2008 15.148 11.2009C15.2155 11.2009 15.2819 11.184 15.3413 11.1519C15.4006 11.1198 15.4511 11.0734 15.488 11.0169C16.3887 9.63561 17.2755 8.22186 18.1205 6.81014C18.1756 6.71777 18.1919 6.6073 18.1657 6.50296C18.1395 6.39863 18.073 6.30894 17.9807 6.25358Z" fill="#F2C247"/>
<path d="M11.785 5.60973C11.7517 5.65848 11.7168 5.70723 11.683 5.75639L8.48178 5.15961C8.46797 5.10192 8.45294 5.04342 8.44116 4.98573C8.41634 4.88122 8.35114 4.79079 8.25983 4.73423C8.16851 4.67767 8.05851 4.65957 7.95388 4.6839C7.84926 4.70823 7.75853 4.773 7.70154 4.86406C7.64455 4.95511 7.62594 5.06502 7.64978 5.16976C8.02231 6.77201 8.43181 8.39051 8.86853 9.98057C8.88864 10.0541 8.92901 10.1205 8.98505 10.1721C9.04108 10.2238 9.11051 10.2586 9.18541 10.2727C9.21007 10.2772 9.23509 10.2795 9.26016 10.2796C9.32323 10.2796 9.38543 10.2649 9.44184 10.2367C9.49825 10.2085 9.54732 10.1675 9.58516 10.1171C10.5663 8.78985 11.5352 7.42892 12.4582 6.07123C12.5188 5.98218 12.5416 5.87268 12.5215 5.76682C12.5015 5.66096 12.4402 5.56741 12.3511 5.50675C12.2621 5.44609 12.1526 5.42329 12.0467 5.44336C11.9408 5.46344 11.8473 5.52474 11.7866 5.61379L11.785 5.60973Z" fill="#F2C247"/>
<path d="M23.6498 6.676C23.6025 6.65123 23.5509 6.63603 23.4977 6.63124C23.4446 6.62645 23.391 6.63219 23.3401 6.64811C23.2891 6.66403 23.2418 6.68982 23.2009 6.72402C23.1599 6.75823 23.1261 6.80016 23.1014 6.84743C23.0741 6.90025 23.0449 6.95306 23.0173 7.00546L19.764 6.78446C19.7441 6.72881 19.7234 6.67275 19.7023 6.61709C19.6646 6.5174 19.5892 6.43651 19.4925 6.39186C19.3957 6.34721 19.2852 6.34238 19.1849 6.37841C19.0846 6.41444 19.0025 6.48844 18.9563 6.58446C18.91 6.68048 18.9033 6.79083 18.9377 6.89171C19.4939 8.43546 20.0894 9.99668 20.7081 11.5282C20.7367 11.5989 20.7846 11.6601 20.8463 11.7049C20.908 11.7497 20.9811 11.7761 21.0571 11.7813H21.0847C21.1562 11.7815 21.2264 11.7628 21.2883 11.7271C21.3502 11.6915 21.4016 11.6401 21.4374 11.5782C22.2584 10.145 23.0624 8.68043 23.8216 7.22525C23.8465 7.17792 23.8618 7.12614 23.8666 7.0729C23.8715 7.01965 23.8657 6.96597 23.8498 6.91495C23.8338 6.86392 23.8079 6.81654 23.7736 6.77554C23.7393 6.73454 23.6972 6.70071 23.6498 6.676Z" fill="#F2C247"/>
<path d="M24.689 7.49143H24.6748C16.7296 7.21814 8.84693 5.98085 1.20005 3.80674C1.09691 3.77689 1.00977 3.70742 0.957703 3.61351C0.905631 3.5196 0.892857 3.4089 0.922171 3.3056C0.951486 3.2023 1.02051 3.11481 1.11414 3.06225C1.20778 3.00969 1.31841 2.99634 1.42186 3.02512C9.00537 5.18207 16.8228 6.40981 24.7024 6.68137C24.8102 6.6832 24.9128 6.72776 24.9877 6.80524C25.0626 6.88272 25.1036 6.98678 25.1018 7.09452C25.0999 7.20227 25.0554 7.30487 24.9779 7.37976C24.9004 7.45465 24.7964 7.4957 24.6886 7.49387L24.689 7.49143Z" fill="#EFEFEF"/>
<path d="M23.5743 14.5533C23.5217 14.5438 23.4678 14.5449 23.4156 14.5564C23.3634 14.568 23.3141 14.5898 23.2704 14.6206C23.2267 14.6514 23.1896 14.6906 23.1612 14.7359C23.1329 14.7812 23.1138 14.8316 23.1051 14.8844C23.0949 14.9429 23.0836 15.0022 23.0734 15.0607L19.9087 15.8464C19.8722 15.7993 19.8344 15.7525 19.7982 15.7058C19.7662 15.662 19.7258 15.6251 19.6793 15.5972C19.6329 15.5693 19.5813 15.551 19.5276 15.5433C19.4739 15.5357 19.4193 15.5388 19.3668 15.5526C19.3144 15.5664 19.2653 15.5906 19.2223 15.6237C19.1794 15.6567 19.1435 15.6981 19.1168 15.7452C19.09 15.7924 19.073 15.8445 19.0667 15.8983C19.0604 15.9521 19.065 16.0067 19.0801 16.0588C19.0952 16.1108 19.1206 16.1593 19.1547 16.2014C20.1565 17.5014 21.2014 18.8035 22.2605 20.0726C22.2986 20.1183 22.3464 20.155 22.4003 20.1802C22.4542 20.2054 22.513 20.2185 22.5725 20.2184C22.6055 20.2183 22.6383 20.2144 22.6704 20.2067C22.7444 20.1883 22.8117 20.1495 22.8646 20.0946C22.9175 20.0398 22.954 19.9712 22.9698 19.8967C23.3115 18.2843 23.6263 16.6443 23.9042 15.0217C23.9222 14.9159 23.8977 14.8072 23.8359 14.7194C23.7741 14.6317 23.68 14.5719 23.5743 14.5533Z" fill="#F2C247"/>
<path d="M12.4574 16.8999C12.3541 16.8694 12.2429 16.8812 12.1483 16.9327C12.0537 16.9842 11.9834 17.0712 11.9529 17.1745C11.9362 17.2314 11.9179 17.2887 11.9013 17.3456L8.66998 17.7567C8.6391 17.7055 8.60701 17.6547 8.57654 17.6039C8.5514 17.5541 8.51626 17.51 8.47333 17.4744C8.43039 17.4387 8.38057 17.4123 8.32698 17.3968C8.27339 17.3813 8.21717 17.3769 8.16183 17.3841C8.10649 17.3912 8.05322 17.4097 8.00533 17.4383C7.95745 17.467 7.91597 17.5052 7.8835 17.5506C7.85103 17.5959 7.82825 17.6475 7.81659 17.7021C7.80493 17.7566 7.80463 17.813 7.81572 17.8677C7.82681 17.9224 7.84904 17.9742 7.88104 18.0199C8.72726 19.4321 9.61288 20.847 10.5135 22.2267C10.5505 22.2832 10.6009 22.3296 10.6603 22.3617C10.7196 22.3938 10.7861 22.4107 10.8536 22.4107C10.8707 22.4108 10.8878 22.4097 10.9048 22.4074C10.9804 22.3979 11.0519 22.3672 11.1109 22.3189C11.17 22.2706 11.2143 22.2067 11.2387 22.1344C11.7668 20.5696 12.2698 18.9775 12.7337 17.4028C12.7636 17.2995 12.7513 17.1885 12.6995 17.0943C12.6478 17 12.5607 16.9301 12.4574 16.8999Z" fill="#F2C247"/>
<path d="M18.048 15.8884C17.943 15.8641 17.8327 15.8824 17.7413 15.9394C17.6499 15.9964 17.5848 16.0874 17.5605 16.1923C17.5471 16.25 17.532 16.3085 17.5199 16.3662L14.3186 16.965C14.2849 16.9158 14.25 16.8671 14.2166 16.8179C14.156 16.7289 14.0624 16.6676 13.9566 16.6475C13.8507 16.6274 13.7412 16.6502 13.6522 16.7109C13.5631 16.7715 13.5018 16.8651 13.4817 16.971C13.4616 17.0768 13.4844 17.1863 13.5451 17.2754C14.4697 18.6327 15.4362 19.9936 16.4181 21.3216C16.4557 21.3725 16.5047 21.4138 16.5611 21.4424C16.6176 21.4709 16.6799 21.4859 16.7431 21.4862C16.7681 21.4863 16.793 21.484 16.8175 21.4792C16.8924 21.4653 16.9619 21.4304 17.0181 21.3788C17.0742 21.3271 17.1146 21.2607 17.1347 21.1872C17.5702 19.5955 17.9797 17.9778 18.3535 16.3763C18.3656 16.3242 18.3673 16.2703 18.3584 16.2175C18.3496 16.1648 18.3305 16.1143 18.3021 16.0689C18.2737 16.0236 18.2366 15.9843 18.193 15.9534C18.1494 15.9224 18.1001 15.9003 18.048 15.8884Z" fill="#F2C247"/>
<path d="M6.81706 17.5802C6.71583 17.5437 6.60427 17.5489 6.50685 17.5946C6.40944 17.6403 6.33414 17.7228 6.29747 17.8239C6.27756 17.8796 6.25684 17.9357 6.23572 17.9917L2.98247 18.2131C2.95484 18.1607 2.926 18.1079 2.89837 18.0555C2.87364 18.0082 2.83984 17.9662 2.7989 17.932C2.75796 17.8978 2.71067 17.872 2.65974 17.856C2.60882 17.84 2.55524 17.8343 2.50209 17.839C2.44893 17.8438 2.39723 17.8589 2.34993 17.8837C2.30264 17.9084 2.26068 17.9422 2.22645 17.9831C2.19222 18.0241 2.16638 18.0714 2.15043 18.1223C2.13447 18.1732 2.1287 18.2268 2.13345 18.2799C2.13819 18.3331 2.15336 18.3848 2.17809 18.4321C2.94022 19.8889 3.74256 21.3534 4.56237 22.7847C4.5981 22.8465 4.64951 22.8979 4.71142 22.9336C4.77333 22.9692 4.84355 22.9879 4.915 22.9878H4.94262C5.01868 22.9826 5.09173 22.9561 5.15345 22.9113C5.21516 22.8666 5.26303 22.8054 5.29159 22.7347C5.91031 21.2035 6.50587 19.6435 7.06203 18.0986C7.09805 17.9973 7.0925 17.8859 7.04659 17.7888C7.00068 17.6916 6.91815 17.6166 6.81706 17.5802Z" fill="#F2C247"/>
<path d="M1.31116 18.7005C1.25781 18.7015 1.20481 18.6918 1.15517 18.6723C1.10554 18.6527 1.06024 18.6235 1.02188 18.5864C0.944397 18.5116 0.89984 18.4089 0.898008 18.3012C0.896176 18.1935 0.937221 18.0894 1.01211 18.0119C1.087 17.9344 1.18961 17.8899 1.29735 17.888C9.177 17.6169 16.9945 16.3891 24.5779 14.2318C24.6816 14.2023 24.7927 14.2152 24.8868 14.2677C24.9809 14.3202 25.0504 14.4079 25.0798 14.5115C25.1093 14.6151 25.0964 14.7263 25.0439 14.8204C24.9915 14.9145 24.9038 14.984 24.8001 15.0134C17.1533 17.1879 9.27066 18.4252 1.32538 18.6981L1.31116 18.7005Z" fill="#EFEFEF"/>
</svg>

<svg xmlns="http://www.w3.org/2000/svg" width="26" height="26" fill="none" viewBox="0 0 26 26">
    <path fill="#F2C247" d="m6.202 4.497-.11.14-3.167-.785-.032-.176a.406.406 0 0 0-.8.137c.279 1.622.594 3.262.934 4.875a.406.406 0 0 0 .71.176 129.804 129.804 0 0 0 3.105-3.87.406.406 0 0 0-.643-.497h.003ZM17.98 6.254a.405.405 0 0 0-.557.14l-.093.152-3.231-.412-.052-.17a.406.406 0 0 0-.78.229c.464 1.573.968 3.165 1.496 4.732a.407.407 0 0 0 .725.092c.9-1.381 1.788-2.795 2.633-4.207a.406.406 0 0 0-.14-.556ZM11.785 5.61l-.102.146-3.201-.596c-.014-.058-.03-.117-.04-.174a.406.406 0 0 0-.792.184c.372 1.602.782 3.22 1.219 4.81a.406.406 0 0 0 .716.137c.981-1.327 1.95-2.688 2.873-4.046a.406.406 0 0 0-.671-.457l-.002-.004ZM23.65 6.676a.406.406 0 0 0-.549.171c-.027.053-.056.106-.084.158l-3.253-.22a9.45 9.45 0 0 0-.062-.168.407.407 0 0 0-.764.275 130.853 130.853 0 0 0 1.77 4.636.407.407 0 0 0 .35.253h.027a.405.405 0 0 0 .352-.203 126.799 126.799 0 0 0 2.385-4.353.405.405 0 0 0-.172-.549Z"/>
    <path fill="#EFEFEF" d="M24.689 7.491h-.014A98.18 98.18 0 0 1 1.2 3.807a.406.406 0 0 1 .222-.782 97.354 97.354 0 0 0 23.28 3.656.406.406 0 1 1-.013.813V7.49Z"/>
    <path fill="#F2C247" d="M23.574 14.553a.404.404 0 0 0-.469.331l-.032.177-3.164.785-.11-.14a.406.406 0 1 0-.644.495c1.002 1.3 2.046 2.602 3.105 3.872a.406.406 0 0 0 .71-.176c.341-1.613.656-3.253.934-4.875a.407.407 0 0 0-.33-.469ZM12.457 16.9a.406.406 0 0 0-.504.274l-.052.172-3.231.41c-.03-.05-.063-.101-.093-.152a.406.406 0 1 0-.696.416 129.583 129.583 0 0 0 2.633 4.207.406.406 0 0 0 .725-.093 127.858 127.858 0 0 0 1.495-4.731.406.406 0 0 0-.277-.503ZM18.048 15.888a.406.406 0 0 0-.487.304c-.014.058-.029.116-.041.174l-3.201.599-.102-.147a.406.406 0 0 0-.672.457 128.909 128.909 0 0 0 2.873 4.047.406.406 0 0 0 .717-.135c.435-1.591.845-3.21 1.218-4.81a.404.404 0 0 0-.305-.489ZM6.817 17.58a.406.406 0 0 0-.52.244l-.061.168-3.254.221-.084-.158a.406.406 0 1 0-.72.377 130.664 130.664 0 0 0 2.384 4.353.407.407 0 0 0 .353.203h.028a.406.406 0 0 0 .349-.253 129.637 129.637 0 0 0 1.77-4.636.406.406 0 0 0-.245-.519Z"/>
    <path fill="#EFEFEF" d="M1.311 18.7a.406.406 0 1 1-.014-.812 97.312 97.312 0 0 0 23.28-3.656.406.406 0 1 1 .223.781 98.14 98.14 0 0 1-23.475 3.685l-.014.003Z"/>
</svg>
